Pictures/search_location-icon.svg

<svg width="17" height="24" viewBox="0 0 17 24" fill="none" xmlns="http://www.w3.org/2000/svg">
<g id="placeholder 2">
<g id="placeholder">
<path id="Shape" fill-rule="evenodd" clip-rule="evenodd" d="M8.4477 0C10.6804 0 12.7796 0.870546 14.3585 2.45105C17.2803 5.37556 17.6434 10.8781 15.1348 14.2255L8.4477 23.894L1.75057 14.2119C-0.747997 10.8781 -0.384894 5.37556 2.53693 2.45105C4.11575 0.870546 6.21459 0 8.4477 0ZM5.47357 8.29091C5.47357 9.97484 6.84272 11.3455 8.52485 11.3455C10.207 11.3455 11.5761 9.97484 11.5761 8.29091C11.5761 6.60698 10.207 5.23636 8.52485 5.23636C6.84272 5.23636 5.47357 6.60698 5.47357 8.29091Z" fill="#5964E0"/>
</g>
</g>
</svg>

<svg xmlns="http://www.w3.org/2000/svg" width="17" height="24" fill="none"><path fill="#5964E0" fill-rule="evenodd" d="M8.448 0a8.3 8.3 0 0 1 5.91 2.451c2.922 2.925 3.285 8.427.777 11.774l-6.687 9.669-6.697-9.682c-2.499-3.334-2.136-8.836.786-11.76A8.3 8.3 0 0 1 8.447 0ZM5.474 8.29a3.057 3.057 0 0 0 3.05 3.056 3.057 3.057 0 0 0 3.052-3.055 3.057 3.057 0 0 0-3.051-3.055 3.057 3.057 0 0 0-3.051 3.055Z" clip-rule="evenodd"/></svg>
